src/svg/stop.svg

<svg height="16" width="14" xmlns="http://www.w3.org/2000/svg" viewBox="0 0 14 16">
  <path d="M10 1H4L0 5v6l4 4h6l4-4V5L10 1z m3 9.5L9.5 14H4.5L1 10.5V5.5l3.5-3.5h5l3.5 3.5v5zM6 4h2v5H6V4z m0 6h2v2H6V10z" />
</svg>

<?xml version="1.0" encoding="UTF-8" standalone="no"?>
<svg width="14px" height="16px" viewBox="0 0 14 16" version="1.1" xmlns="http://www.w3.org/2000/svg" xmlns:xlink="http://www.w3.org/1999/xlink">
    <!-- Generator: Sketch 3.7.1 (28215) - http://www.bohemiancoding.com/sketch -->
    <title>stop</title>
    <desc>Created with Sketch.</desc>
    <defs></defs>
    <g id="Octicons" stroke="none" stroke-width="1" fill="none" fill-rule="evenodd">
        <g id="stop" fill="#000000">
            <path d="M10,1 L4,1 L0,5 L0,11 L4,15 L10,15 L14,11 L14,5 L10,1 L10,1 Z M13,10.5 L9.5,14 L4.5,14 L1,10.5 L1,5.5 L4.5,2 L9.5,2 L13,5.5 L13,10.5 L13,10.5 Z M6,4 L8,4 L8,9 L6,9 L6,4 L6,4 Z M6,10 L8,10 L8,12 L6,12 L6,10 L6,10 Z" id="Shape"></path>
        </g>
    </g>
</svg>
